logo/semantic-ui.svg

<?xml version="1.0" encoding="UTF-8" standalone="no"?>
<svg width="256px" height="256px" viewBox="0 0 256 256" version="1.1" xmlns="http://www.w3.org/2000/svg" xmlns:xlink="http://www.w3.org/1999/xlink" preserveAspectRatio="xMidYMid">
	<g>
		<path d="M0,0 L256,0 L256,256 L0,256 L0,0 Z" fill="#34BDB2"></path>
		<path d="M168.461,87.041 C154.945,79.199 142.947,73.032 127.251,73.304 C118.271,73.46 110.561,78.341 108.94,87.274 C107.431,95.585 114.819,100.195 122.505,103.025 C135.252,107.719 146.349,112.675 158.874,117.894 C181.643,127.383 193.318,142.75 191.938,162.467 C190.182,187.554 175.084,205.547 151.089,211.479 C119.735,219.231 89.288,207.423 63.563,190.939 C70.056,181.048 77.589,174.296 84.043,164.465 C98.905,170.791 110.581,179.339 126.129,180.672 C137.092,181.612 149.514,181.089 151.977,168.212 C154.197,156.6 144.091,150.375 134.234,146.898 C122.499,142.759 110.786,137.696 99.278,132.996 C78.005,124.307 69.349,107.312 70.806,87.291 C70.806,75.552 80.546,51.825 104.427,44.445 C141.119,33.105 161.335,44.717 187.942,61.816 C180.875,71.162 175.442,77.807 168.461,87.041" fill="#FFFFFF"></path>
	</g>
</svg>

<svg viewBox="0 0 256 256" xmlns="http://www.w3.org/2000/svg"><path fill="#34BDB2" d="M0 0h256v256H0V0Z"/><path fill="#FFF" d="M168.461 87.04c-13.52-7.85-25.52-14.01-41.21-13.74 -8.98.15-16.69 5.03-18.32 13.97 -1.51 8.31 5.87 12.92 13.56 15.75 12.74 4.69 23.84 9.65 36.369 14.869 22.76 9.48 34.44 24.85 33.06 44.57 -1.76 25.08-16.86 43.08-40.85 49.01 -31.354 7.75-61.801-4.06-87.526-20.54 6.49-9.9 14.02-16.643 20.48-26.48 14.86 6.32 26.53 14.87 42.08 16.2 10.96.94 23.38.41 25.84-12.46 2.22-11.62-7.89-17.84-17.75-21.32 -11.74-4.14-23.45-9.21-34.96-13.91 -21.28-8.69-29.93-25.69-28.48-45.71 0-11.74 9.74-35.47 33.62-42.85 36.69-11.34 56.908.27 83.515 17.37 -7.07 9.34-12.5 15.99-19.49 25.22"/></svg>
